X:1
T:Symphony No. 3 in E-Flat Major
T:"Eroica" 4th Movement
T:Ludwig van Beethoven
T:Adp. from arrangements by Ernst Pauer and Franz Liszt
%%score { ( 1 3 5 ) | ( 2 4 ) }
L:1/8
Q:1/4=132
M:2/4
K:Eb
V:1 treble nm="Piano"
V:3 treble 
V:5 treble 
V:2 bass 
V:4 bass 
V:1
"^FINALEAllegro molto"!ff! [dd']2- [dd']/c'/b/=a/ | b/=a/g/^f/ [Gg]/=f/e/d/ | %2
 e/d/c/B/ [Cc]/B/=A/G/ | _A/B/c/B/ A/B/A/G/ | F/G/A/B/ A/G/F/E/ | z3/2 [FAdf]/ [FAdf]z/[Adfa]/ | %6
 [Adfa]2 z2 | .[ABfa]2 .[ABfa]2 | [ABfa]2 [fad'f']2 | [FBf]2 [fad'f']2 |[Q:1/4=66] !fermata!D4 | %11
[Q:1/4=132] .E z z2 | .[B,B] z z2 | .B, z z2 | .E z z2 | .E z .D z | .E z z .=E | .F.D._E.=A, | %18
 .B,2 z2 | z2 [Ee] z | z2 [Bb] z | z2 [B,B] z | z2 [Ee] z | z [Ee] z [Dd] | z [Ee] z [=E=e] | %25
 .[Ff].[Dd].[_E_e].[=A,=A] | [B,B]2 z2 | z4 |!ff! .[Bb].[Bb].[Bb] z | z4 | %30
!p![Q:1/4=66] !fermata![Bb]3[Q:1/4=132] A | G z z2 | A z z2 | B z [B,B] z | E z z2 | %35
!ff! .[Bb].[Bb].[Bb] z | .[Bb].[Bb].[Bb] z |!p! [Bb]3 z |[Q:1/4=66] !fermata![Bb]3[Q:1/4=132] z | %39
 z2 .[Gg] z | z2 .[Aa] z | z [Bb] z [Bb] | z2 [Ee] z |!p! E4 |: B4 | B,4 | E4 | .E2 .D2 | z cBG | %49
 [FA][DB][_EG]e |1 dfBA | G z z2 :|2[M:3/8] dfB |:[M:1/8] z |[M:2/4] z4 |!f! BBB!p! b | %56
"_cresc." ab =b!mf!c' |!p![Q:1/4=66] e2 !fermata!d[Q:1/4=132] A | G4 | z a fe | dafd | %61
[M:3/8] e2 z ::[M:1/8] B/A/ |[M:2/4]!p! (3.G.B.A (3.G.F.E | (3.D.F.A (3.G.F.E | B4 | e4 | e2 d2 | %68
 e3 =e |!p! .f.d._e.=A |[M:3/8] B3 ::[M:1/8] z |[M:2/4] (3z [Ac][GB] (3.[FA][FA][EG] | %73
!f! .b.b.b z |!p! (3z"_cresc." [ca][Bg] (3.[Af][Af]!mf!e | %75
[Q:1/4=66]!p! !fermata![db]3[Q:1/4=132] [da] | g4 | a4 | b2 b2 |[M:3/8] e2 z :| %80
[M:1/8][Q:1/4=104]"_dolce" e |[M:2/4] g3 e | d3 f | a3 f | e2 z g |"_cresc." b2 b2 | b3 g | %87
"_dim." b/a/[Bf] a/g/_e |!p! g2 f e |!f! [Gg]3!f! [Ee] | [Dd]3!f! [Ff] | [Aa]3!f! [Ff] | %92
 [Ee]3!f! [Gg] | [Bb]2!f! [Bb]2 | b3!f! g | b/a/f a/g/e | [Gg]2!f! [Ff]!p! B/=A/ | %97
 B/c/d/e/ f/g/_a/g/ |!f! .[dfa]"_dim.".[dfa].[dfa] B/A/ | B/c/d/e/ f/g/_a/g/ | %100
!p![Q:1/4=66] !fermata![da]3[Q:1/4=132] =a | b3 [Beg] | f3 c' | e2 g>f | [Ge] z z B/!f!=A/ | %105
 B/c/d/e/ f/g/a/g/ | .[Bab].[Bab].[Bab] B/=A/ | B/[=Ac]/[Bd]/[ce]/ [df]/[eg]/[f_a]/[eg]/ | %108
!f![Q:1/4=66] !fermata![Ada]3!p![Q:1/4=132] [=A=a] |!f! [Bb]3!f! [Gg] | [Ff]3!f! [cc'] | %111
 [Ee]2 [Gg]>[Ff] | [Ee]!p! E/D/ E/F/G/A/ | B3!p! G | FG/F/ G/A/B/c/ | _d3!p! B | %116
"_cresc." .[_G=A].[Ge].[_Af].[A=B] | .c.[cg].[c=a].[=Ac] |!f! .[G=B].[Bg].[c=a].[=Ac] | %119
 .[G=B].[Bg].[c=a].[=Ac] |!ff! .[=B,DG=B]2 .[GBdg]2 | .[G=Bdg]2 z2 |!p! c4 | g4 | G4 | c3 .e | %126
 .d.c.=B.d | c3 .g | .f.e.df- | f=e/d/ e/f/g/a/ | .b.b.b.b | ac'.f z | z .g.c.b | .a.c'.f z | %134
 z .f.=e.c' | .f._e.d.f | fe/d/ .cc | c=B/=A/ B/c/d/e/ | .[_Af].[=Af].[_Bf].[=Bf] | eg a2- | %140
 a.^f.g.g | g.g a2 | a^fg.g | .g_b b/a/g/f/ | =ec/=B/ c/d/_e/=e/ | fc _d2- | d[G=B]c.[_Bc] | %147
 .cc _d2 | _d"_cresc."=Bcc | f4 | c'4 |!f! g4 | c'4 | g/a/g/f/ =e/f/g/e/ | f3 .[ac'] | %155
!f! .[gc'].[fc'].[=ec'].[gc'] | [fc']3 .[ac'] |!f! .[gc'].[fc'].[=ec'].[gc'] | f3 f | %159
 .e!f!._d.c.e | _d z z2 | b4 | .e'._d'.c'.e' | ._d'.c'.b.d' | c'2 z2 | [Bb]3 [cc'] | _d'4 | %167
 c'3 =d'/c'/ | =b!f! z z2 | e4 | =a2 b2-!f! |!f! b2 B2 | .[gb]2 .[GB]2 | .[g=a]2 .[G=A]2 | %174
 .[f=a]2 .[F=A]2 | .[f=a].[F=A] .[fa].[FA] |!ff! .[df].[DF] .[d'f'].[df] | %177
 .[d'f'].[df] .[d'f'].[df] | .[d'f'].[df] z2 | .[d'f'].[df] .[d'f'].[df] |!p! [^f^f']3 [dd'] | %181
 [^c^c']3 [=e=e'] | [gg']3 [=e=e'] | [dd']3 [^f^f'] | [=a=a']2 [aa']2 | [=a=a']3 [^f^f'] | %186
 [=a=a']/g/.[=e=e'] [gg']/^f/.[dd'] | [^fd'^f']2 [=e^c'=e'] .d' | %188
!p!!8va(! .[^f=a^f'].[faf'].[faf'].[fad'] | .[g=a^c'].[ac'].[gac'].[ga=e'] | %190
 .[g=ag'].[gag'].[gag'].[ga=e'] | .[^f=ad'].[fad'].[fad'].[fa^f'] | %192
"_cresc." .[=a^f'=a'].[af'a'].[a=e'g'a'].[ae'g'a'] | %193
!mp! .[=a^f'=a']"_dim.".[af'a'].[af'a'].[a=bf'] |!p! .[g=bg'].[g=a=e'].[^fa^f'].[fad'] | %195
 .[^fd'^f'].[fd'f'].[=e^c'=e']!8va)!!p! =A/^c/ | =e/g/^c'/=e'/ g'/e'/c'/g/ | %197
 =e/^f/g/e/ ^c/e/=A/c/ | =e/g/^c'/=e'/ g'/e'/c'/g/ | =e/^f/g/=a/ b/=b/c'/^c'/ | %200
 d'/^c'/d'/c'/ d'/c'/d'/c'/ | =b/=a/g/^f/ =e/d/^c/=B/ | =A z =e/4^f/4e/4f/4d/e/ | (3d=AG (3^F=ED | %204
!f! (3_B,=A,.A, (3.[G^c=e]!f!.[Gce].[Gce] |!f! (3=B,=A,.A, (3.[G^c=eg]!f!.[Gceg].[Gceg] | %206
!f! (3_B,=A,.A, (3.[^c=eg^c']!f!.[cegc'].[cegc'] | z2 (3[=e^c'=e'][ec'e'][ec'e'] | %208
 z2 (3[d=ad'][dad'][dad'] | z2 (3[=e=bd'][ebd'][ebd'] | %210
 (3[^f=ad'][fad'][fad'] (3[ga^c'][gac'][gac'] |"_cresc." (3[^f=ad'][dd'][dd'] (3[dd'][dd'][dd'] | %212
!ff! (3[^fd'^f'][fd'f'][fd'f'] (3[fd'f'][fd'f'][fd'f'] | %213
 (3[gd'g'][gd'g'][gd'g'] (3[^gd'=f'^g'][gd'f'g'][gd'f'g'] | %214
 (3[=ad'^f'=a'][ad'f'a'][ad'f'a'] (3[=ga^c'][gac'][gac'] | [^f=ad']/!>(!d/=e/f/ g/=a/_b/c'/!>)! | %216
!f! .[dd']2 [dd']>[dd'] | .[dd']2 [dd']>[dd'] | .[dd']>.[cc'] .[Bb]>.[=A=a] | %219
 .[Bb]>.[cc'] .[Bb]>.[=A=a] |{/=a} .[Gg]>.[^F^f] .[Gg]>.[Bb] | .[=A=a]>.[Bb] .[cc']>.[Aa] | %222
 .[^F^f]>.[Gg] .[=A=a]>.[Ff] | [Gg]/!mf!!<(!d/=e/^f/ g/=a/b/[cc']/!<)! |!f! [dd']2 [dd']>[dd'] | %225
 .[dd']2 [dd']>[dd'] | .[dd']>.[cc'] .[Bb]>.[=A=a] | .[Bb]>.[cc'] .[Bb]>.[=A=a] | %228
{/=a} .[Gg]>.[^F^f] .[Gg]>.[Bb] | .[=A=a]>.[Bb] .[cc']>.[Aa] | .[^F^f]>.[Gg] .[=A=a]>.[Ff] | %231
 [Gg]/!ff! E/=F/G/ =A/=B/c/d/ | c4 | g4 | G4 | c4 | c'2 c'>c' | =a2 a>a | ^f>g =a>f | %239
 [Bdg]/ E/=F/G/ =A/=B/c/d/ | c4 | g4 | G4 | c4 | c'2 c'>c' | =a2 a>a | ^f>g =a>f | %247
 g>g [cc']>[cc'] | c'>c' c'>c' | =a>a a>a | ^f>g =a>f | [Bdg]>[d=a] [db]>[dg] | %252
 [d^f]>[dg] [d=a]>[df] | [dg]>[d=a] [db]>[dg] | [d^f]>[dg] [d=a]>[df] | .[Bdg].[Bd].[=Ac^f].[Acd] | %256
 .[Bdg].[Bd].[=Ac^f].[Acd] | .[Bdg].[Bd].[=Ac^f].[Acd] | .[Bdg].[Bd].[=Ac^f].[Acd] | [Bdg]2 z2 | %260
 [GBg]2 z2 |!p! z4 | z2 z!p! c | =e3 c | =B3 d | f3 d | c3 =e |"_cresc." .[Gg]2 .[Gg]2 | %268
 [Gg]3 [G=e] |!p! g/f/.[Gd] [Gf]/=e/[Gc] | =e2 d z |!pp! c4 | g4 | !>!G4 | c2 z2 | %275
 c/=B/c/B/ c/B/c/B/ | z/ =B/c/B/ c/B/c/B/ | =E3 G | !^!F2!pp! x2 | [Ff]4 | [Bb]4 | B4 | %282
!pp! e/e/f/e/ d/e/f/g/ | a/b/c'/b/ a/g/f/e/ | d/e/f/e/ d/c/B/A/ | G/B/e/d/ c/B/A/G/ | %286
 F/A/A/A/ A/A/B/A/ | G/B/c/B/ A/G/!p! A | .F.G.AA- | A!pp!B/A/ G/A/[GB]/[Ac]/ | %290
 [G_d]/e/f/e/ d/c/B/A/ | G/A/B/A/ G/F/[I:staff +1] E/_D/ |[I:staff -1] ec _d2- | dB e2- | eB _d2- | %295
 d2 z _d- | dc/B/ A/G/A/B/ |!p! G_e !^!g2 | z e d2- | d.f.a.f | eG .A2- |!pp! AF B2- | BG A2- | %303
 A/B/A/G/ F/E/D/C/ | z!mp! a/g/ f/e/d/c/ | =B/c/d/c/ B/A/G/F/ | E g a2- | af !^!b2 | e4 | B4 | %310
!f! b .[B,F].[FA].[B,F] | e3 .c | .d.e.f!^!d | !>!e3 .a | .f.g._a.f | .g.a.b.a | .g.a.b.g | %317
 .a.b.c'.a | .b.c'._d'.b | .c'.=d' .[c'e']!f!.[af'] |!ff! [bg'] B/c/ d/e/f/g/ | %321
 a/b/c'/b/ a/g/f/e/ | f/e/d/c/ B/A/G/F/ | E2 !>!b2- | b2 !>!b2- | b2 !>!e'2- | e'2 !>!d'2- | %327
 d'2 !>!c'2- | c'2 !>!b2- | b2 !>!a2- | a2 !>!g2 | .[Aca].[=DAB=d].[EBe].[FBf] | %332
 .[_GB_g].[=Ge=g].[Aea].[=Ae=a] | .[Bdb]2 .[Bd]2 | .[EG]2 .[eg]2 | .[Ac]2 .[ac']2 | .[DF]2 .[df]2 | %337
 .[GB].[gb] .E.[ce] | .[FA].[fa] .D.[Bd] | [EG] [Gg]c[Ff-] | f [ce]2 [Bd]- | [Bd] [Ac]2 [GB]- | %342
 [Ee]2 [Dd][DFAd] |!ff! .[DAd].[FA].[DF].[A,D] | .[Ad].[FA].[DF].[df] | .[Ad].[fa].[df].[fad'] | %346
 .[dfa].[ad'f'].[ad'f'].[ad'f'] | [d'a']/a/[e'a']/a/ [d'a']/a/[e'a']/a/ | %348
 [d'a']/a/[e'a']/a/ [d'a']/a/[e'a']/a/ | [d'a'] [Ada]2 [Bdab]- | [Bdab] [=Bda=b]2 [cdac']- | %351
 [cdac']2 [DABd]2- | [DABd]2 [Afa]2 |[Q:1/4=30] !fermata![DFAd]3!p![Q:1/4=48] e | %354
[Q:1/4=48]"^Poco Andante"!>(! [GBg]2 [Ge]7/4!>)!!pp![Fd]/4 | [FBd]3!p! [Ff] | %356
!p!!>(! [Aa]2 [Af]7/4!>)!!pp![Ge]/4 | [Ge]3"_cresc." [Gg] | [Bb]2 [Bb]2 |!>(! [Bb]3 [Beg]!>)! | %360
!p! [Aea]!>(![ABf][GBg][=Ae] | g2!>)! f!p! [G,B,E] |!>(! [G,B,G]2 [_G,CE_G]7/4!>)!!pp![F,B,DF]/4 | %363
 [F,B,DF]!<(! B/c/ .d/.e/.f/.g/!<)! |!mp! a z!p! [A,DFA]7/4!pp![G,CEG]/4 | %365
 [G,CEG]!p! e/d/ e/f/g/a/ |"_cresc." [Bb]2 [fa]>[eg] |!>(! [Begb]3 [Be-g-b]!>)! | %368
!p! x!>(! [Bf]2 [=Ae] | =A7/4!>)!!pp!B/4 B z/!p! B/ | B4 | B2 B>B | !arpeggio!_B4- | B2 B>B | %374
 z3/2 [dd']/ [dd'][ee']/ z/ | z3/2 [dd']/ [dd'][ee']/ z/ | [Geg]2 d2 | [Geg]/ B/=A/B/ _A/G/F/E/ | %378
!p! .[B,B]/!>![Aa].[Gg]/ .[Gg]/!>![Ff].[Ee]/ | .[EABe]/!>![Dd].[Ee]/ .[Ff]/.[Gg]/.[Aa]/.[Bb]/ | %380
!p! [=B=b]/!>![cc'].[_B_b]/ .[Bb]/!>![Aa].[Gg]/ | %381
 .[Gg]/!>![Ff].[=E=e]/ .[Ff]/.[^F^f]/.[Gg]/.[Aa]/ | %382
"_cresc." [=A=a]/[Bb].[Bb]/ .[dd']/[ee'].[ee']/ | [=B=b]/[cc'].[cc']/ .[dd']/[ee']!mf!.[ee']/ | %384
!p!!<(! e2!<)!!>(! d>[f=a]!>)! |!p! (3.[ege']/.g/.b/ (3.e/.g/.B/ (3.e/.G/.B/!ff! (3.E/.G/.B,/ | %386
 (3.E/.G,/.B,/ (3.E/.G/.B/ (3.e/.g/.b/ (3.[Bgb]/.[Bgb]/.[Bgb]/ | %387
 (3.[Bgb]/ .D/.F/ (3.A/.B/.d/ (3.f/.a/.b/ (3.[dab]/.[dab]/.[dab]/ | %388
 (3[dfb]/.d/.f/ (3B/d/F/ (3B/D/F/ (3[DAB]/[DAB]/[DAB]/ | %389
 (3.[EGB]/ .E/.G/(3.B/.e/.g/ (3[Be]/[Beb]/[Beb]/ (3[Beb]/[Beb]/[Beb]/ | %390
 (3E/G/B/ (3e/[eg]/[egb]/ (3D/F/[AB]/ (3d/[dfb]/[dfb]/ | %391
 (3E/G/B/ (3e/g/b/ (3[ebe']/[ebe']/[ebe']/ (3[=eb=e']/[ebe']/[ebe']/ | %392
 (3[fbf']/[fbf']/[fbf']/ (3[dbd']/[dbd']/[dbd']/ (3[_eb_e']/[ebe']/[ebe']/ (3[e_g=ab]/[egab]/[egab]/ | %393
 (3[Beb]/[Beb]/[Beb]/ (3[Beb]/[Beb]/[Beb]/ (3[Bdb]/[Bdb]/[Bdb]/ (3[Bb]/[Bb]/[Bb]/ | %394
 (3[Bb]/.[Bb]/[Bb]/ (3!>![Bb]/[Bb]/.[Bb]/ (3!>![Bb]/[Bb]/[Bb]/ (3[Bb]/[Bb]/[Bb]/ | %395
 (3[Bb]/f/d/ (3B/F/D/ (3B,/D/F/ (3B/d/f/ | %396
 (3[Bb]/[Bb]/[Bb]/ (3!>![Bb]/[Bb]/[Bb]/ (3!>![Bb]/[Bb]/[Bb]/ (3[Bb]/[Bb]/[Bb]/ | %397
!f! (3[Bb]/[Bfb]/[Bfb]/ (3[Bfb]/[Bfb]/[Bfb]/ (3[Bfb]/[Bfb]/[Bfb]/ (3[B^fb]/[Bfb]/[Bfb]/ | %398
 (3[Bgb]/ E/G/ (3B/e/g/ (3b/[ege']/[ege']/ (3[ege']/[ege']/[ege']/ | %399
 (3[eae']/ E/A/ (3c/e/a/ (3c'/[ac'e']/[ac'e']/ (3[fae']/[fae']/[fae']/ | %400
 (3[gbe']/[Bgb]/[Bgb]/ (3[Bgb]/[Bgb]/[Bgb]/ (3[Bdab]/[Bdab]/[Bdab]/ (3[Bdab]/[Bdab]/[Bdab]/ | %401
 [Begb]!p!.e' [B,EG].b | [EBe].g [Geg].e | %403
 (3[dfa]/b/.c'/ (3.b/.a/.g/"_cresc." (3.f/.g/.a/ (3.g/.f/.e/ | %404
 (3.[dd']/.[ee']/.[ff']/ (3.[ee']/.[dd']/.[cc']/ (3.[Bb]/.[cc']/.[Bb]/ (3.[Aa]/.[Gg]/!f!.[Ff]/ | %405
!p! z !>![ee'] z !>!b | z !>![Gg] x2 | %407
 (6:4:6[Ada]/"_cresc."b/.c'/.b/.a/.g/ (6:4:6.f/.e/.d/.c/.B/.A/ | %408
 (6:4:6[G_d]/[ee']/!f!.[ff']/.[ee']/.[_d_d']/.[cc']/!>(! (6:4:6.[Bb]/.[Aa]/.[Gg]/.[Ff]/.[Ee]/.[_D_d]/!>)! | %409
!p! [Cc]/[CE]/[CEc]- [CEc]/[CE]/[CEA] | z/ e/e/e/ fe/ z/ | z4 | z/ e/f/e/ z/ e/f/e/ | %413
!p! [Ee]2 [Ee]2 | [Ee]4 | [_G_g]2 [Gg]2 | [_G_g]4 | [Bb]2 [Bb]2 | [Bb]4 |!f! [ee']2 [ee']2 | %420
 [ee']4 | ^f'2 f'2 | %422
!8va(! (3[^f=a=c'^f']/[fac'f']/[fac'f']/ (3[fa=c'f']/[fac'f']/[fac'f']/ (3[fa=c'f']/[fac'f']/[fac'f']/ (3[fa=c'f']/[fac'f']/[fac'f']/ | %423
!ff! (3[gbg']/[gbg']/[gbg']/ (3[gbg']/[gbg']/[gbg']/ (3[gbg']/[gbg']/[gbg']/ (3[gbg']/[gbg']/[gbg']/ | %424
 (3[=ac'd'g']/[ac'd'g']/[ac'd'g']/ (3[ac'd'g']/[ac'd'g']/[ac'd'g']/ (3[ac'd'^f']/[ac'd'f']/[ac'd'f']/ (3[ac'd'f']/[ac'd'f']/[ac'd'f']/ | %425
!f! [gbg']!8va)!!p! z .d'/.d'/ z | .e'/.e'/ z .^f/.f/ z | .e'/.e'/ z .^f/.f/ z | %428
 .=f'/.f'/"_cresc." z .=b/.b/ z |!mf! .f'/.f'/"_dim." z .=b/.b/ z |!p! .d'/.d'/ z .c'/.c'/ z | %431
 .e'/.e'/ z .^f/.f/ z |!<(! .g/.g/ z .d'/.d'/ z!<)! |!mf! .e'/!>(!.e'/ z .^f/.f/ z!>)! | %434
!p! .g/"_dim.".g/ z .[gg']/.[gg']/ z |!pp! .[gg']/.[gg']/ z .[^f^f']/.[ff']/ z | %436
[Q:1/4=140]"^Presto"!ff! !///-!G2 g2 | G/[Ff]/[Ee]/[Dd]/ [Ee]/[Dd]/[Cc]/[B,B]/ | %438
 [Cc]/[B,B]/[=A,=A]/[G,G]/ [_A,_A]/[G,G]/F/E/ | D/E/F/E/ D/B,/C/D/ | E/ B,/!f!E/G/ B/G/E/B,/ | %441
 F/B,/F/A/ B/A/F/B,/ | G/E/G/B/ e/B/G/E/ | D/F/A/d/ f/d/A/F/ |!ff! [EBe]z/[EBe]/ [Geg]>!ff![EBe] | %445
 [DFd]>[FBf] [Aa]>!ff![FBdf] |!mf! x/ B/[eb]/!8va(!b/ (6:4:6!^![e'b']/b/!8va)![eb]/B/[EB]/B,/ | %447
 x/ .B/[fb]/!8va(!b/ (6:4:6!^![f'b']/b/!8va)![fb]/B/[FB]/B,/ | %448
 x/ B/[eb]/!8va(!b/ (6:4:6!^![e'b']/b/!8va)![eb]/B/[EB]/B,/ | %449
 x/ .B/[fb]/!8va(!b/ (6:4:6!^![f'b']/b/!8va)![fb]/B/[FB]/B,/ | %450
!ff! [GB] [Begb]/[Begb]/ [Bfab] [B,DFB]/[B,DFB]/ | [B,EGB] [Begb]/[Begb]/ [Bfab] [B,DFB]/[B,DFB]/ | %452
 [B,EGB]/ E/F/G/ A/!ff!G/A/=A/ | B/!ff!=A/B/=B/ c/!ff!B/c/d/ | e/c/=B/c/ x2 | x4 | x4 | x4 | x4 | %459
 x4 | x4 | x4 | z/!f! [ege']/[ege']/[ege']/!f! [ege']/[ege']/[ege']/[ege']/ | %463
 [ege']/[ge'g']/[ge'g']/[ge'g']/ [ge'g']/[ge'g']/[ge'g']/[ge'g']/ | %464
 [ge'g']/[ge'g']/[ge'g']/[ge'g']/ [ge'g']/[ge'g']/[ge'g']/[ge'g']/ | %465
 [ge'g']/[ge'g']/[ge'g']/[ge'g']/ [ge'g']/[ge'g']/[ge'g']/[ge'g']/ |!ff! .[ge'g'] z .[GBeg] z | %467
 z2 [Begb] z | z [GBeg] z [Begb] | z [Begb] z [Begb] | z2 [Begb] z | z2 [egbe'] z | %472
 z [egbe'] z [egbe'] | z [egbe'] z [egbe'] | z/ [Ee]/[Ff]/[Gg]/ [Aa]/[Bb]/[cc']/[dd']/ | %475
 [ee']/!8va(! [ee']/[ff']/[gg']/ [aa']/[bb']/[c'c'']/[d'd'']/ | [e'e'']!8va)! z z2 | [Begb] z z2 | %478
 [G,B,E]2[Q:1/4=50] !fermata!z2 |] %479
V:2
!ped! [D,D]2- [D,D]/C/B,/!ped-up!=A,/ | B,/=A,/G,/^F,/ G,/=F,/E,/D,/ | %2
 E,/D,/C,/B,,/ C,/B,,/=A,,/G,,/ | _A,,/B,,/C,/B,,/ A,,/B,,/A,,/G,,/ | %4
 F,,/G,,/A,,/B,,/ A,,/G,,/F,,/E,,/ |!ped! [B,,,B,,]2 [B,,,B,,]2 | [B,,,F,,B,,]2 z2!ped-up! | %7
 .[D,,D,]2 .[F,,F,]2 | [B,,F,B,D]2 z2 | [B,,F,B,D]2 z2 | [F,A,B,]4 |!p! .[E,,E,] z z2 | .B,, z z2 | %13
 .[B,,,B,,] z z2 | .[E,,E,] z z2 | .[E,,E,] z .[D,,D,] z | .[E,,E,] z z .[=E,,=E,] | %17
 .[F,,F,].[D,,D,].[_E,,_E,].[=A,,,=A,,] | .[B,,,B,,]2 z2 | [E,,E,] z z2 | [B,,B,] z z2 | %21
 [B,,,B,,] z z2 | [E,,E,] z z2 | [E,,E,] z [D,,D,] z | [E,,E,] z z [=E,,=E,] | %25
 .[F,,F,].[D,,D,].[_E,,_E,].[=A,,,=A,,] | [B,,,B,,]2 z2 | z4 | %28
!ped! .[B,,,B,,].[B,,,B,,].[B,,,B,,]!ped-up! z | z4 |!ped! !fermata![B,,,B,,]3 [A,,A,]!ped-up! | %31
 [G,,G,] z z2 | [A,,A,] z z2 | [B,,B,] z B,, z | [E,,E,] z z2 | %35
!ped! .[B,,,B,,].[B,,,B,,].[B,,,B,,]!ped-up! z |!ped! .[B,,B,].[B,,B,].[B,,B,]!ped-up! z | %37
 [B,,,B,,]3 z |!ped! !fermata![B,,B,]3 [A,,A,]!ped-up! | .[G,,G,] z z2 | .[A,,A,] z z2 | %41
 [B,,B,] z [B,,B,] z | [E,,E,] z z2 | z E,E,E, |: E,2 D, z | z AAA | A2 E z | z B,A,F, | G,3 C, | %49
 F,B,,E,[C,=A,] |1 [B,,B,]2 z2 | E4 :|2[M:3/8] [B,,B,]2 z |:[M:1/8] B, |[M:2/4] A,B,=B,C | %55
 E,2 D, z | z B,, D,F, | !fermata!A,3 B, | EB, G,E, | C,3 _C, | B,,D,F,A, |[M:3/8] G,B,E, :: %62
[M:1/8] z |[M:2/4][K:treble] e4 | b4 |[K:bass] z2 (3.A,.G,.F, | %66
 (3.E,.[G,B,].[A,C] (3.[B,D].[CE].[DF] |!p! (3.E.E.E (3.F.F.F | (3.E.E._D (3.C.C.C | %69
 (3.[CFA].[CFA].[_CFA] (3.[B,FG].[B,EG].[B,E_G] |[M:3/8] (3[B,DF] =A,B,B,, ::[M:1/8] B,,/C,/ | %72
[M:2/4] (3D,D,E, (3.F,F,G, | (3[A,DF][DF][CE] .[B,D] B,/C/ | (3DDE (3.FFG | %75
 !fermata![FA]3[K:treble] [B,F] | (3.[EG].[EB].[EB] (3.[EB].[EB].[EB] | %77
 (3.[EA].[Ec].[Ec] (3.[E_c].[Ec].[Ec] | (3.[EA].[EF].[EG] (3.[EA].[EG].[EA] |[M:3/8] (3.G.G.G.E :| %80
[M:1/8]!pp!!ped! z |[M:2/4][K:bass] z/ G,/B,/E/ [B,E][B,E]!ped-up! | %82
!ped! z [DF] A/F/D/B,/!ped-up! |!ped! A,/B,/D/F/ [A,B,][A,B,]!ped-up! | %84
!pp!!ped! z [G,B,][G,B,][G,B,]!ped-up! | z [G,B,] z [F,B,] | z G,G,C | %87
 [F,C][D,F,B,][E,G,B,][=A,,_G,] | =G,=A,B, E |!mp! E,,/F,,/G,,/A,,/ B,,/C,/D,/E,/ | %90
 F,/G,/A,/G,/ F,/E,/D,/C,/ | B,,/C,/D,/E,/ F,/G,/A,/F,/ | G,/A,/B,/C/ B,/A,/G,/F,/ | %93
 E,/G,/F,/E,/ D,/B,,/C,/D,/ | E,/D,/E,/_D,/ C,/=D,/=E,/C,/ | F,/_E,/D,/B,,/ E,/D,/E,/=A,,/ | %96
 B,,/E,/G,/B,/ B,, z | z[K:treble] B,/C/ D/=E/F/E/ | F/G/A/G/ F/_E/D/C/ | B,/=A,/B,/C/ D/E/F/=E/ | %100
 !fermata![B,F]3 z |[K:bass]!ped! z [G,B,E][G,B,E] [E,G,]!ped-up! | %102
!ped! z [A,CE][A,EF][A,EF]!ped-up! | z [G,B,E] z [B,DF] | %104
!p! .E,/!<(!.B,/.A,/.G,/ .F,/.E,/.D,/!<)!.C,/ | .B,,/.=A,,/.B,,/.C,/ .D,/.E,/.F,/.=E,/ | %106
 .F,/.G,/._A,/.G,/ .F,/.E,/.D,/.C,/ | B,,_A,/G,/ F,/E,/D,/E,/ | %108
!ped! !fermata![B,,F,B,]3!ped-up! z |!mp!!ped! G,,/A,,/B,,/C,/ D,/E,/F,/G,/!ped-up! | %110
!ped! A,/G,/F,/E,/ D,/C,/B,,/A,,/!ped-up! | B,,/E,/G,/B,/ A,/B,/A,/B,/ | G, z z2 | _D3 B, | C4 | %115
 =E3 _D | C/E/C/E/ =D/F/D/F/ | E/G/E/G/ ^F,/E/F,/E/ | %118
 [G,,D,]/G,/[G,,D,]/G,/ [G,,E,]/^F,/[G,,E,]/F,/ | [G,,D,]/G,/[G,,D,]/G,/ [G,,E,]/^F,/[G,,E,]/F,/ | %120
 .[G,,D,G,]2 .[G,,,G,,]2 | .[G,,,G,,]2 z2 | z CCC | C2 =B, z | z[K:treble] fff | f2 e z | z FFF | %127
 F2 E z | G4 | c4 | C4 | F3 A | .G.F.=E.G | F3 .c | .B.A.G.B | .A.G.F.A | GFEE |!p! G4 | G,4 | %139
 C3!p! .E | .D.C.=B,.D | C3 .G | .F.E.D.F | F=E/D/ E/F/G/A/ |[K:bass] z _B,B,B, | A,CA,!p! .[A,C] | %146
 .[G,C].[F,C].[=E,C].[G,C] | [F,C]3 .C |!p! .[B,C].[A,C].[G,C].[B,C] | A,G,.[F,D].[A,F] | %150
 .[G,E].[F,D].[E,C].[G,E] | x4 | G,2 z2 | C4 | z C _D2- | D=B,CC | CC _D2- | D=B,CC | C z z2 | %159
 .C.B,.=A,.C | .B,._A.G.B | .A.G.F.A | G[K:treble] [EG]/[DF]/ [EG]/[FA]/[GB]/[Ac]/ | %163
[K:bass] z!f! .A.G.G | E2 E2 | GE/D/ E/_G/F/E/ | _D2 F- z | A2 _A z | G4 | [E,C] C/=B,/ C2 | %170
 [^F,D] D,/^C,/ D,/=C,/B,,/=A,,/ | [G,,D,] G,/^F,/ G,/=A,/B,/G,/ | [_E,,_E,]E,/D,/ E,/F,/E,/D,/ | %173
 [^C,,^C,]C,/=B,,/ C,/D,/=E,/C,/ | [D,,D,]=E,/F,/ G,/=A,/=B,/^C/ | D/^C/D/C/ D/=A,/F,/D,/ | %176
!ped! [_A,,=B,,D,]/F,/[A,,B,,D,]/F,/ [A,,B,,D,]/F,/[A,,B,,D,]/F,/ | %177
 [A,,=B,,D,]/F,/[A,,B,,D,]/F,/ [A,,B,,D,]/F,/[A,,B,,D,]/F,/!ped-up! | %178
!ped! [G,,=B,,D,]/F,/[G,,B,,D,]/F,/ [G,,B,,D,]/F,/[G,,B,,D,]/F,/ | %179
 [G,,=B,,D,]/F,/[G,,B,,D,]/F,/ [G,,B,,D,]/F,/[G,,B,,D,]/F,/!ped-up! | %180
!p!!ped! !>![^F,,^F,] [=B,D][B,D][B,D]!ped-up! |!ped! !>!^F,, [^A,^C=E][A,CE][A,CE]!ped-up! | %182
!ped! !>!^F,, [^A,^C=E][A,CE][A,CE]!ped-up! |!ped! =B,, [=B,D][B,D][B,D]!ped-up! | %184
 z [=E,=A,] z [^C,G,A,] | z [^F,=A,][F,A,] z | z [G,=A,] z A, | z ^G=A z | %188
[K:treble] D/=E/^F/G/ =A/=B/^c/d/ | =e/=a/g/^f/ e/d/^c/=B/ | =A/^G/A/=B/ ^c/A/B/c/ | %191
 d/D/=E/^F/ G/=A/=B/^c/ | d/^f/=e/d/ ^c/d/=B/c/ | d/^c/d/c/ d/c/d/^d/ | =e/=A/=B/^c/ d/A/^F/D/ | %195
 =A,/D/^F/=A/ A, z |!p! [=EG]2 _B=A | [=EG]2 =B=A | [=EG]2 _B=A | [^C=E]2 =AG | %200
[K:bass] [=A,D]2 G^F | [=B,D]2 =AG | ^F/D/F/D/ ^C/=E/G/C/ | (3[D,^F,D]=A,G, (3F,=E,D, | %204
 (3[B,,,B,,][=A,,,=A,,].[A,,,A,,] z2 | (3[=B,,,=B,,][=A,,,=A,,].[A,,,A,,] z2 | %206
 (3[B,,,B,,][=A,,,=A,,].[A,,,A,,] z2 | (3[=B,,=B,][=A,,=A,].[A,,A,] (3[A,,A,][G,,G,].[G,,G,] | %208
 (3[G,,G,]!f![^F,,^F,][F,,F,] (3[F,=A,D][F,A,D][F,A,D] | %209
 (3[=A,,=A,]!f![G,,G,].[G,,G,] (3[G,D=E][G,DE][G,DE] | (3[=A,,D,^F,]=A,A, (3[A,,=E,]A,A, | %211
 [D,^F,]2 z2 |!ped! (3[C,D,C][C,D,C][C,D,C] (3[C,D,C][C,D,C][C,D,C]!ped-up! | %213
!ped! (3[=B,,D,=B,][B,,D,B,][B,,D,B,]!ped-up!!ped! (3[_B,,D,_B,][B,,D,B,][B,,D,B,]!ped-up! | %214
!ped! (3[=A,,=A,][A,,A,][A,,A,]!ped-up!!ped! (3[A,,A,][A,,A,][A,,A,]!ped-up! | [D,,D,] z z2 | %216
!ped! z/!mf! B,/D,/B,/ G,/B,/D,/B,/!ped-up! |!ped! z/!mf! C/=A,/C/ A,/C/A,/C/!ped-up! | %218
!ped! z/!mf! ^F,/=A,,/F,/ D,/F,/A,,/F,/!ped-up! |!ped! z/!mf! D,/B,,/D,/ B,,/D,/B,,/D,/!ped-up! | %220
!ped! G,,/G,/[B,,D,]/G,/ G,,/G,/[B,,D,]/G,/!ped-up! | D,/D/[^F,C]/D/ D,/D/[F,C]/D/ | %222
 D,,/D,/[=A,,C,]/D,/ D,,/D,/[=A,,C,]/D,/ |!ped! [G,,B,,] z z2!ped-up! | %224
!f!!ped! z/!mf! D/[G,B,]/D/ [G,B,]/D/[G,B,]/D/!ped-up! | %225
!f!!ped! z/!mf! D/[=A,C]/D/ [A,C]/D/[A,C]/D/!ped-up! | %226
!f!!ped! z/!mf! D/[G,B,]/D/ [G,B,]/D/[G,B,]/D/!ped-up! | %227
!f!!ped! z/!mf! D/[G,B,]/D/ [G,B,]/D/[G,B,]/D/!ped-up! | %228
!ped! G,,/G,/[B,,D,]/G,/ G,,/G,/[B,,D,]/G,/!ped-up! |!ped! D,/D/[^F,C]/D/ D,/D/[F,C]/D/!ped-up! | %230
!ped! D,,/D,/[=A,,C,]/D,/ D,,/D,/[=A,,C,]/D,/!ped-up! | [G,,B,,]/ C,/D,/E,/ F,/G,/=A,/=B,/ | %232
!ff!!ped! (3[G,C]G,G, (3G,E,C,!ped-up! | (3G,,G,G, (3G,D,=B,, | %234
!ped! (3G,,G,^F, (3G,=A,=B,!ped-up! | (3C!ff!G,E, (3G,E,C, | %236
!ped! z/!ff! E,/C,/E,/ C,/E,/C,/E,/!ped-up! |!ped! z/!ff! D,/C,/D,/ C,/D,/C,/D,/!ped-up! | %238
!ped! D,,/D,/C,/D,/ D,,/D,/C,/D,/!ped-up! | G,,/ C,/D,/E,/ F,/G,/=A,/=B,/ | %240
!ff!!ped! (3[G,C]G,G, (3G,E,C,!ped-up! | (3G,,G,G, (3G,D,=B,, | %242
!ped! (3G,,G,^F, (3G,=A,=B,!ped-up! | (3C!ff!G,E, (3G,E,C, | %244
!ped! z/!ff! E,/C,/E,/ C,/E,/C,/E,/!ped-up! |!ped! z/!ff! D,/C,/D,/ C,/D,/C,/D,/!ped-up! | %246
!ped! D,,/D,/C,/D,/ D,,/D,/C,/D,/!ped-up! | G,,=B,,/F,/ C,/E,/!ff!C,/E,/ | %248
!ped! C,/E,/C,/E,/ A,,/E,/C,/E,/!ped-up! |!ped! ^F,,/D,/C,/D,/ F,,/D,/C,/D,/!ped-up! | %250
!ped! D,,/D,/C,/D,/ D,,/D,/C,/D,/!ped-up! | G,,/D,/B,,/D,/ G,,/B,,/D,/B,,/ | %252
 D,,/D,/C,/D,/ D,,/D,/C,/D,/ | G,,/D,/C,/D,/ G,,/D,/C,/D,/ | D,,/D,/C,/D,/ D,,/D,/C,/D,/ | %255
 z/ D/B,/G,/ C/D/C/=A,/ | B,/D/B,/D/ C/D/C/=A,/ | B,/D/B,/D/ C/D/C/=A,/ | B,/D/B,/D/ C/D/C/=A,/ | %259
 [G,B,]2 z2 | [G,,G,]2 z2 |!ped! .[G,,,G,,] z z2 | z4!ped-up! | %263
!pp!"^dolce"!ped! C, [G,C=E][G,CE][G,CE]!ped-up! | G, [DF][DF][DF] | %265
!ped! G,, [G,=B,DF][G,B,DF][G,B,DF]!ped-up! | C, [G,C=E][G,CE][G,CE] | z [=E,G,] z [=B,,G,] | %268
!ped! z!>(! [C,=E,G,][C,E,G,]G,!ped-up!!>)! | z [F,G,] z G, | G,, C=B,!p! C | _E3 C | x4 | =F3 D | %274
 C2 z F, | _A,3 F, | =E,3 G, | C4 | z/!pp! =B,/C/B,/ z2 | x4 | x4 | x4 | !^!E4 | !^!B,4 | %284
[K:treble] !^!B3 z | E3 .C | .D.E.F.D | E2- E!pp!F/E/ | D/E/F/E/ D/C/B,/C/ |[K:bass]!p! _D z z2 | %290
 x2!pp! G/A/[I:staff -1]B/c/ |!p![I:staff +1] !^!E3 z | %292
 C/E/[I:staff -1]A/G/ F/E/_D/[I:staff +1]C/ | B,/_DD/ D/B,/E/D/ | A,3 ._D | .B,.C._D.B, | x2 F2- | %297
!pp! FB, E[I:staff -1] F/G/ | A/B/c/B/ A/G/[I:staff +1]F/E/ | D/E/F/E/ D/C/B,/A,/ | %300
"_cresc." G,/B,/[I:staff -1]E/D/ C/[I:staff +1]B,/A,/G,/ | .D,.E,.F,.D, |!mp! E,2 z C- | C x x2 | %304
 B, z .G2 | G, =B,/C/ D/G,/=A,/B,/ | [C,C]2[K:treble] C2 | F/E/D/C/[K:bass] B,/B,,/C,/D,/ | %308
!f! E,/D,/F,/E,/ D,/!mf!E,/F,/G,/ | A,/B,/C/B,/ A,/G,/F,/E,/ | D,/E,/F,/E,/ D,/C,/B,,/A,,/ | %311
 G,,/B,,/E,/D,/ C,/B,,/A,,/G,,/ | F,,/A,,/G,,/A,,/ F,,/A,,/B,,/A,,/ | G,,/B,,/E,/D,/ C,/D,/E,/C,/ | %314
 D,/E,/F,/E,/ D,/B,,/C,/D,/ | E,/D,/E,/F,/ G,/A,/G,/F,/ | =E,/F,/G,/F,/ E,/!f!C,/D,/E,/ | %317
 F,/=E,/F,/G,/ A,/G,/!f!A,/F,/ | G,_E, [E,E]2- | EC/B,/ [E,A,]G,/F,/ | E,4!ped! | !^!B,4!ped-up! | %322
 !^!B,,4 | E,2 z C, | D,E,F,D, | E,2 [G,,,G,,]2- | [G,,,G,,]2 [=B,,,=B,,]2- | [B,,,B,,]2 [C,,C,]2 | %328
 !>![F,,F,]2 [G,,G,]2 | [A,,A,]2 [A,,,A,,]2 | [E,,E,]2 [=E,,=E,]2 | %331
 .[F,,F,].[F,,F,].[_G,,_G,].[D,,D,] | .[E,,E,].[D,,_D,].[C,,C,].[_C,,_C,] | %333
 [B,,,B,,] B,,/=A,,/ B,,/A,,/B,,/A,,/ | B,,/=A,,/B,,/A,,/ B,,/A,,/B,,/A,,/ | _A,4 | %336
 B,,/=A,,/B,,/A,,/ B,,/A,,/B,,/A,,/ | B,,/=A,,/B,,/A,,/ B,,/A,,/B,,/A,,/ | %338
 B,,/=A,,/B,,/A,,/ B,,/A,,/B,,/A,,/ | z B,=A,_A, | G,_G,F,F, | E,E,D,_D, | %342
 C,_C, B,,/=A,,/B,,/A,,/ | %343
!ped! [B,,,B,,]/=A,,,/[B,,,B,,]/A,,,/ [B,,,B,,]/A,,,/[B,,,B,,]/A,,,/!ped-up! | %344
!ped! [B,,,B,,]/=A,,,/[B,,,B,,]/A,,,/ [B,,,B,,]/A,,,/[B,,,B,,]/A,,,/!ped-up! | %345
!ped! [B,,,B,,]/=A,,,/[B,,,B,,]/A,,,/ [B,,,B,,]/A,,,/[B,,,B,,]/A,,,/!ped-up! | %346
!ped! [B,,,B,,]/=A,,,/[B,,,B,,]/A,,,/ [B,,,B,,]/A,,,/[B,,,B,,]/A,,,/!ped-up! | %347
 [B,,,B,,][_C,,_C,][B,,,B,,][C,,C,] | [B,,,B,,][_C,,_C,][B,,,B,,][C,,C,] | %349
!ped! .[B,,,B,,]2 .[B,,B,]2!ped-up! |!ped! .[B,,B,]2 [B,,B,]>!ff![B,,B,]!ped-up! | %351
!ped! [B,,B,]_A,/G,/ F,/!ff!E,/D,/C,/ | B,,C,/D,/ E,/!ff!F,/G,/A,/!ped-up! | %353
!ped! !fermata![B,,B,]3!ped-up! z |"^con espress." [E,B,]2 [G,B,]7/4B,/4 | B,3 C | %356
 [F,CF]2 [=B,D]7/4[CE]/4 | [CE]3 E | [G,EG]2 [DFA]7/4[EG]/4 | [EG]3 [_DE] | [CE][=DF]E[CE] | %361
 [B,-E]2 [B,D] z | [E,,,E,,]2 [=A,,,=A,,]7/4[B,,,B,,]/4 | [B,,,B,,]3 [_A,,,_A,,]/[G,,,G,,]/ | %364
 [F,,,C,,F,,]2 [=B,,,=B,,]7/4[C,,C,]/4 | [C,,C,]3 [_B,,,_B,,]/[A,,,A,,]/ | %366
 [G,,,E,,G,,]2 [D,,D,]7/4[E,,E,]/4 |!ped! [E,,E,]3 [_D,,_D,]!ped-up! | %368
 [C,,C,][=D,,=D,][E,,E,][C,,C,] | .[B,,,B,,].[B,,B,].[B,,,B,,] z | %370
!pp!!ped! (6:4:6[B,,,B,,]/ A,/B,/D/B,/A,/!ped-up!!ped! (6:4:6D,/A,/B,/D/B,/A,/!ped-up! | %371
!ped! (6:4:6F,/A,/B,/D/B,/!ped-up!A,/ (6:4:6B,,/A,/B,/D/B,/A,/ | %372
!ped! (6:4:6[B,,,B,,]/ A,/B,/D/B,/!ped-up!A,/!ped! (6:4:6D,/A,/B,/D/B,/!ped-up!A,/ | %373
!ped! (6:4:6F,/A,/B,/D/!ped-up!B,/A,/ (6:4:6A,,/B,,/D,/F,/D,/B,,/ | %374
!ped! (6:4:6G,,/B,,/E,/G,/E,/B,,/ (6:4:6G,,/B,,/E,/G,/E,/B,,/!ped-up! |!ped! A,, x A,, x!ped-up! | %376
!ped! (6:4:6[B,,,B,,]/ E,/G,/B,/G,/E,/!ped-up!!ped! B,, x!ped-up! | %377
 [E,,E,]/ B,/=A,/B,/ _A,/G,/F,/E,/ | %378
!ped! (6:4:6[B,,,B,,]/ D,/F,/A,/F,/D,/!ped-up!!ped! B,,2!ped-up! | %379
 (3[B,,,B,,]/ .[B,,B,]/.[B,,B,]/ (3.[B,,B,]/.[B,,B,]/.[B,,B,]/ (3.[A,,A,]/.[G,,G,]/.[F,,F,]/ (3.[E,,E,]/.[D,,D,]/.[C,,C,]/ | %380
!ped! (6:4:6[_B,,,_B,,]/ D,/F,/A,/F,/D,/!ped-up! B,,2 | %381
 B,, (3.A,/.[A,,A,]/.[G,,G,]/ (6:4:6.[F,,F,]/.[E,,E,]/.[D,,D,]/.[C,,C,]/.[B,,,B,,]/.[A,,,A,,]/ | %382
 (6:4:6[G,,,G,,]/B,,/E,/G,/E,/B,,/ (6:4:6.G,,/.G,/.E,/.B,,/.E,/.G,,/ | %383
 (6:4:6[A,,,A,,]/ D,/G,/A,/F,/C,/ (6:4:6.A,,/.A,/.F,/.C,/.F,/.A,,/ | %384
 (6:4:6[B,,,B,,]/ E,/G,/B,/G,/E,/ (6:4:6B,,/B,/B,,/-[B,,B,]/[B,,B,]/[B,,B,]/ | %385
 [E,,E,] z z!ff! [E,,B,,E,] |!ped! [G,,B,,G,]3!ff! [E,,B,,E,]!ped-up! | %387
!ped! [D,,B,,D,]3!ff! !>![F,,B,,F,]!ped-up! |!ped! [A,,B,,A,]3!ff! !>![F,,B,,F,]!ped-up! | %389
!ped! [E,,B,,E,]3!ff! [G,,B,,G,]!ped-up! | %390
!ped! z/!f! [EG]/[EG]/[EG]/!ped-up!!ff!!ped! z/!f! F/[DFA]/[DFA]/!ped-up! | %391
!ped! z/!f! [EG]/[EGB]/[EGB]/ [EGB]/[EGB]/!ff! z!ped-up! | %392
!ped! [B,,B,]/[A,,A,]/!ped-up!!ped! .[F,,B,,F,]!ped! [A,,A,]/[G,,G,]/!ped-up!!ped![E,,E,]!ped-up! | %393
!ped! [G,,G,]2 [F,,F,] (3.[B,,,B,,]/.[B,,,B,,]/.[=A,,,=A,,]/!ped-up! | %394
 (3.[B,,,B,,]/.[B,,,B,,]/.[=A,,,=A,,]/ (3.[B,,,B,,]/.[B,,,B,,]/.[C,,C,]/ (3.[D,,D,]/.[D,,D,]/.[E,,E,]/ (3.[F,,F,]/.[F,,F,]/.[G,,G,]/ | %395
!ped! [A,,B,,A,][A,,B,,A,]!ped-up![A,,B,,A,] (3.[B,,,B,,]/.[B,,,B,,]/.[=A,,,=A,,]/ | %396
 (3.[B,,,B,,]/.[B,,,B,,]/.[C,,C,]/ (3.[D,,D,]/.[D,,D,]/.[E,,E,]/ (3.[F,,F,]/.[F,,F,]/.[G,,G,]/ (3.[_A,,_A,]/.[A,,A,]/.[A,,A,]/ | %397
!ff!!ped! [A,,A,]3!ped-up! [=A,,=A,] |!ped! [B,,B,]3!ped-up!!ff! [G,,G,] | %399
!ped! !>![F,,F,]3!ped-up!!ff! [C,C] |!ped! [E,,E,]2 [G,,G,]>!ped-up!!>![F,,F,] | %401
!ped! (6:4:6[E,,E,]/B,,/E,/G,/E,/B,,/!ped-up!!ped! (6:4:6E,,/B,,/E,/G,/E,/B,,/ | %402
!ped! (6:4:6E,,/B,,/E,/G,/E,/B,,/!ped-up!!ped! (6:4:6E,,/B,,/E,/G,/E,/B,,/!ped-up! | %403
 (6:4:6[B,,B,]/D/F/A/F/D/ (3.[F,F]/.[G,G]/.[A,A]/ (3.[G,G]/.[F,F]/.[E,E]/ | %404
 (3.[D,D]/.[E,E]/.[F,F]/ (3.[E,E]/.[D,D]/.[C,C]/ (3.[B,,B,]/.[C,C]/.[B,,B,]/ (3.[A,,A,]/.[G,,G,]/.[F,,F,]/ | %405
!ped! (6:4:6[E,,E,]/B,,/E,/G,/E,/B,,/!ped-up!!ped! (6:4:6E,,/B,,/E,/G,/E,/B,,/!ped-up! | %406
!ped! (6:4:6E,,/B,,/E,/G,/E,/B,,/!ped-up!!ped! (6:4:6E,,/B,,/E,/G,/E,/B,,/!ped-up! | %407
 (6:4:6[B,,B,]/D/F/A/F/D/ (6:4:6.F/.E/.D/.C/.B,/.A,/ | %408
 (6:4:6[E,G,]/!mp!.E,,/.F,,/.G,,/.G,,/.A,,/ (6:4:6.B,,/.C,/._D,/.E,/.F,/.G,/ | %409
 A,/.E,/E,- E,/.E,/E, | z/ .[E,_D]/[E,D]- [E,D]/.[E,D]/[E,D]- | %411
 [E,D]/.[E,_D]/[E,D]- [E,D]/.[E,D]/[E,D] | [E,_D]/.[E,C]/[E,C] .A,,/.[A,,A,]/.[E,,E,]/.[C,,C,]/ | %413
 .[A,,,A,,].[C,,C,].[_D,,_D,].[G,,,G,,] |!ped! .[A,,,A,,].[C,,C,].[E,,E,].[A,,,A,,]!ped-up! | %415
 .[=A,,,=A,,].[C,,C,].[E,,E,].[B,,,B,,] |!ped! .[=A,,,=A,,].[C,,C,].[E,,E,].[A,,,A,,]!ped-up! | %417
!ped! .[B,,,B,,].[E,,E,].[_G,,_G,].[_C,,_C,]!ped-up! | .[B,,,B,,].[E,,E,].[_G,,_G,].[B,,,B,,] | %419
!ped! .[_C,,_C,].[E,,E,].[_G,,_G,]!ped-up!.[B,,,B,,] | %420
!ped! .[=C,,=C,].[^F,,^F,].[=A,,=A,].[C,,C,]!ped-up! | %421
!ped! .[^C,,^C,].[^F,,^F,].[=A,,=A,].[^C,^C]!ped-up! | %422
!ped! .[D,,D,].[^F,,^F,].[=A,,=A,].[D,D]!ped-up! |!ped! .[D,,D,].[G,,G,].[B,,B,].[D,D]!ped-up! | %424
!ped! .[D,,D,].[D,D] .[D,,D,].[D,D]!ped-up! | %425
 (3[G,,,G,,]/G,,/G,,/ (3G,,/G,,/G,,/!ped! (3[G,,,G,,]/G,,/G,,/ (3G,,/G,,/G,,/!ped-up! | %426
!ped! (3[G,,,G,,]/G,,/G,,/ (3G,,/G,,/G,,/!ped-up!!ped! (3[G,,,G,,]/G,,/G,,/ (3G,,/G,,/G,,/!ped-up! | %427
!ped! (3[G,,,G,,]/G,,/G,,/ (3G,,/G,,/G,,/ (3[G,,,G,,]/G,,/G,,/ (3G,,/G,,/G,,/!ped-up! | %428
!ped! (3[G,,,G,,]/G,,/G,,/ (3G,,/G,,/G,,/ (3[G,,,G,,]/G,,/G,,/ (3G,,/G,,/G,,/!ped-up! | %429
!ped! (3[G,,,G,,]/G,,/G,,/ (3G,,/G,,/G,,/ (3[G,,,G,,]/G,,/G,,/ (3G,,/G,,/G,,/!ped-up! | %430
!ped! (3[G,,,G,,]/G,,/G,,/ (3G,,/G,,/G,,/!ped-up!!ped! (3[G,,,G,,]/G,,/G,,/ (3G,,/G,,/G,,/!ped-up! | %431
!ped! (3[G,,,G,,]/G,,/G,,/ (3G,,/G,,/G,,/ (3[G,,,G,,]/G,,/G,,/ (3G,,/G,,/G,,/!ped-up! | %432
!ped! (3[G,,,G,,]/G,,/G,,/ (3G,,/G,,/G,,/ (3[G,,,G,,]/G,,/G,,/ (3G,,/G,,/G,,/!ped-up! | %433
!ped! (3[G,,,G,,]/G,,/G,,/ (3G,,/G,,/G,,/!ped-up!!ped! (3[G,,,G,,]/G,,/G,,/ (3G,,/G,,/G,,/!ped-up! | %434
!ped! (3[G,,,G,,]/G,,/G,,/ (3G,,/G,,/G,,/!ped-up!!ped! (3[G,,,G,,]/G,,/G,,/ (3G,,/G,,/G,,/!ped-up! | %435
!ped! (3[G,,,G,,]/G,,/G,,/ (3G,,/G,,/G,,/!ped-up!!ped! (3[G,,,G,,]/G,,/G,,/ (3G,,/G,,/G,,/!ped-up! | %436
 !///-!G,2 G,,2 | G,/[F,,F,]/[E,,E,]/[D,,D,]/!ped! [E,,E,]/[D,,D,]/[C,,C,]/[B,,,B,,]/!ped-up! | %438
!ped! [C,,C,]/[B,,,B,,]/[=A,,,=A,,]/[G,,,G,,]/!ped-up!!ped! x F,/E,/!ped-up! | %439
!ped! D,/E,/F,/E,/!ped-up!!ped! D,/B,,/C,/D,/!ped-up! | %440
!ped! E,/ z/ z/ [G,,E,]/ [E,G,]>!ff![G,,E,]!ped-up! | %441
!ped! [B,,F,]z/[B,,F,]/ [F,A,]>!ff![B,,A,]!ped-up! | %442
!ped! [E,,E,]/ [G,,E,]/[G,,E,]/[G,,E,]/ [E,G,]>!ff![G,,E,]!ped-up! | %443
!ped! [B,,F,]/[B,,F,]/[B,,F,]/[B,,F,]/ [F,A,]>!ff![B,,F,]!ped-up! | %444
!f!!ped! [E,,G,]/ [G,B,E]/[G,B,E]/[G,B,E]/ [B,EG]/ [E,,E,]/[E,,E,]/[E,,E,]/!ped-up! | %445
!ped! [B,,,B,,]/ [A,B,F]/[A,B,F]/[A,B,F]/ [B,FA]/ [B,,,B,,]/[B,,,B,,]/[B,,,B,,]/!ped-up! | %446
!ff!!ped! !>![E,,E,] z/ [E,E]<[G,G]!ff!!>![E,,E,]/!ped-up! | %447
!ped! .[D,,D,] z/ [F,F]<[A,A]!ff!!>![F,,F,]/!ped-up! | %448
!ped! .[E,,E,] [G,B,E]/[G,B,E]/ .[B,EG]!ff! [E,,E,]/[E,,E,]/!ped-up! | %449
!ped! .[D,,D,] [B,F]/[B,F]/ .[FA]!ff! !>![F,,F,]/!>![F,,F,]/!ped-up! | %450
!ped! [E,,E,]/!ff![E,,E,]/[G,,G,]/[E,,E,]/!ped-up!!ped! [D,,D,]/!ff![F,,F,]/[A,,A,]/[F,,F,]/!ped-up! | %451
!ped! [E,,E,]/!ff![E,,E,]/[G,,G,]/[E,,E,]/!ped-up!!ped! [D,,D,]/!ff![F,,F,]/[A,,A,]/[F,,F,]/!ped-up! | %452
 [E,,E,]/ [E,,E,]/[F,,F,]/[G,,G,]/ [A,,A,]/[G,,G,]/[A,,A,]/[=A,,=A,]/ | %453
 [B,,B,]/[=A,,=A,]/[B,,B,]/[=B,,=B,]/ [C,C]/[B,,B,]/[C,C]/[D,D]/ | %454
 [E,E]/[C,C]/[=B,,=B,]/[C,C]/ [G,,G,]/[A,,A,]/[I:staff -1][Cc]/[A,A]/ | %455
[I:staff +1] [=E,,=E,]/[F,,F,]/[I:staff -1][A,A]/[F,F]/[I:staff +1] [=A,,=A,]/[B,,B,]/[I:staff -1][Dd]/[B,B]/ | %456
[I:staff +1] [=B,,=B,]/!ff![C,C]/[I:staff -1][Ee]/[Cc]/[I:staff +1] [G,,G,]/[A,,A,]/[I:staff -1][Cc]/[A,A]/ | %457
[I:staff +1] [=E,,=E,]/[F,,F,]/[I:staff -1][A,A]/[F,F]/[I:staff +1] [=A,,=A,]/[B,,B,]/[I:staff -1][Dd]/[B,B]/ | %458
!ped![I:staff +1] [E,E]/[B,,B,]/[I:staff -1][Ee]/[B,B]/[I:staff +1] [E,,E,]/[B,,,B,,]/!ff![I:staff -1][Gg]/[Ee]/!ped-up! | %459
!ped![I:staff +1] [G,,G,]/[E,,E,]/[I:staff -1][Gg]/[Ee]/[I:staff +1] [G,,G,]/[E,,E,]/!ff![I:staff -1][Bb]/[Gg]/!ped-up! | %460
!ped![I:staff +1] [B,,B,]/[G,,G,]/!ff![I:staff -1][ee']/[Bb]/[I:staff +1] [E,E]/[B,,B,]/[K:treble]!ff!!8va(![I:staff -1][gg']/[ee']/!ped-up!!8va)! | %461
[I:staff +1][K:bass] [G,G]/[E,E]/[K:treble]!ff!!8va(![I:staff -1][bb']/[gg']/!8va)![I:staff +1][K:treble] [B,B]/[G,G]/!ff!!8va(![I:staff -1][e'e'']/[bb']/!8va)! | %462
!ped![I:staff +1] [Ee]/[K:bass] [E,E]/"^sempre più"[D,D]/[C,C]/ [B,,B,]/[A,,A,]/[G,,G,]/[F,,F,]/!ped-up! | %463
!ped! [E,,E,]/[E,,E,]/[D,,D,]/[C,,C,]/ [B,,,B,,]/[A,,,A,,]/[G,,,G,,]/[F,,,F,,]/!ped-up! | %464
 [E,,,E,,]/[E,,,E,,]/[F,,,F,,]/[G,,,G,,]/ [A,,,A,,]/[B,,,B,,]/[C,,C,]/[D,,D,]/ | %465
!ped! [E,,E,]/[E,,E,]/[F,,F,]/[G,,G,]/ [A,,A,]/[B,,B,]/[C,C]/[D,D]/!ped-up! | %466
!ped! [E,E] z [G,B,E] z!ped-up! | [E,,E,]2 [G,B,EG] z | z [G,B,E] z [B,EG] | z [B,EG] z [B,EG] | %470
!ped! z2 [G,B,EG] z!ped-up! | z2 x2 | .[E,,E,]2 .[E,E]2 | .[B,,B,]2 .[G,,G,]2 | %474
!ped! [E,,E,][F,,F,]/[G,,G,]/ [A,,A,]/[B,,B,]/[C,C]/[D,D]/!ped-up! | %475
!ped! [E,E]/ [E,,E,]/[F,,F,]/[G,,G,]/ [A,,A,]/[B,,B,]/[C,C]/[D,D]/!ped-up! | %476
!ped! [E,E] z z2!ped-up! | !arpeggio![E,B,EG] z z2 | [E,,G,,B,,E,]2 !fermata!z2 |] %479
V:3
 x4 | x4 | x4 | x4 | x4 | x4 | x4 | x4 | x2 [B,FA]2 | x2 [B,FA]2 | x4 | x4 | x4 | x4 | x4 | x4 | %16
 x4 | x4 | x4 | x4 | x4 | x4 | x4 | x4 | x4 | x4 | x4 | x4 | x4 | x4 | x4 | x4 | x4 | x4 | x4 | %35
 x4 | x4 | x4 | x4 | x4 | x4 | x4 | x4 | x4 |: x4 | x4 | x4 | x4 | E3 =E | x4 |1 x4 | x4 :|2 %52
[M:3/8] x3 |:[M:1/8] x |[M:2/4] x4 | x4 | x4 | x4 | x4 | A4 | B2 B2 |[M:3/8] E2 z ::[M:1/8] x | %63
[M:2/4] x4 | x4 | (3.D[I:staff +1].C.B,[I:staff -1] (3.D.E.F | G z z2 | %67
 (3G"_cresc."[GB][GB] (3[AB][AB][AB] | (3[GB][GB][GB] (3[GB][GB]!mf![GB] | x4 |[M:3/8] x3 :: %71
[M:1/8] x |[M:2/4] x4 | x4 | x4 | x4 | (3.e._d.d (3.d.d.d | (3.c.e.e (3.f.f.f | %78
 (3.=d.a.g (3.f.e.d |[M:3/8] (3.e.B.B.G :|[M:1/8] x |[M:2/4] z [GB] G/B/e/g/ | a/e/d/B/ B[Bd] | %83
 z [Bd] A/B/d/B/ | z/ G/A/B/ c/d/e/f/ | g/^f/g/e/ a/g/a/=f/ | g/!mf!f/e/_d/ c/d/B/c/ | x4 | %88
 e/g/f/e/ d/f/b/a/ | z!mp! BB[GB] | z!mp! [AB][AB]B | z!mp! BB[Bd] | z!mp! [GB][GB]B | %93
 [eg]!mp![eg][fa]!mp![fa] | [Beg]!mp![Beg][B=eg][Bc] | [cf]BB[_Gc] | [Be]!mp![Be][Bd] x | x4 | x4 | %99
 x4 | x4 | z/ B/e/B/ _A/G/[I:staff +1]F/E/ |[I:staff -1] z/ c/F/A/ c/f/a/f/ | z/ B/G/B/ A/d/B/A/ | %104
 x4 | x4 | x4 | x4 | x4 | z!mp! .e.e[Be] | z!mp! .[ce].[ce]e | [GB][GB]dd | x4 | =E4 | x4 | G4 | %116
 x4 | x4 | x4 | x4 | x4 | x4 | x4 | x4 | x4 | x4 | x4 | x4 | x4 | x4 | x4 | x4 | x4 | x4 | x4 | %135
 x4 | x4 | x4 | x4 | cgc z | z dG=f | .eg.c!p! e | .dc.=B.d | G z z2 | _B z z2 | x4 | x4 | %147
 AcF!p! A | GF=EG | c4- | c4 | .=B.c.d.B | g2 c/d/=e/f/ | c4 | c3 x | x4 | x4 | c4 | %158
 z =A/G/ A/B/c/_d/ | F4 | BB/=A/ B/c/_d/e/ | f!f!.c._d.f | x4 | !arpeggio!_d=deB- | %164
 BA/G/ A/c/B/A/ | g2 _g2 | _dB/=A/ B/d/c/B/ | c3 =d | g4 | c2 z2 | x2 =A2 | =a2 =A2 | x4 | x4 | %174
 x4 | x4 | x4 | x4 | x4 | x4 | x4 | x4 | x4 | x4 | x4 | x4 | x4 | x4 |!8va(! x4 | x4 | x4 | x4 | %192
 x4 | x4 | x4 | x3!8va)! x | x4 | x4 | x4 | x4 | x4 | x4 | x4 | x4 | x4 | x4 | x4 | x4 | x4 | x4 | %210
 x4 | x4 | x4 | x4 | x4 | x4 | x4 | x4 | x4 | x4 | x4 | x4 | x4 | z2 G/=A/B/ z/ | x4 | x4 | x4 | %227
 x4 | x4 | x4 | x4 | x4 | .e2!ff! .e.e | [ce]!ff![=Bd] .[Bd]>.[ce] | .[df]>!ff!.[df] .[df]>.[df] | %235
 [df]2 e z | [ce]4 | [cd]4 | [cd]2 [cd]2 | x4 | .e2!ff! .e.e | [ce]!ff![=Bd] .[Bd]>.[ce] | %242
 .[df]>!ff!.[df] .[df]>.[df] | [df]2 e z | [ce]4 | [cd]4 | [cd]2 [cd]2 | [=Bd]2 x2 | [ce]4 | %249
 [cd]4 | [cd]2 [cd]2 | x4 | x4 | x4 | x4 | x4 | x4 | x4 | x4 | x4 | x4 | G4- | G4- | G4- | G4- | %265
 G4- | G4 | x4 | x4 | x4 | z ^FG x | G/^F/G/F/ G/F/G/F/ |[I:staff +1] G/^F/G/F/ G/D/G/F/ | %273
[I:staff -1] G/^F/G/F/ G/F/G/F/ | G/=B/c/B/ c/B/c/B/ | F4 | c4 | !^!c/B/c/B/ c/B/c/B/ | %278
 [Ac] z[I:staff +1] C/B,/C/B,/ | _B,/=A,/B,/A,/ B,/A,/B,/A,/ | B,/=A,/B,/A,/ B,/A,/B,/A,/ | %281
 B,/=A,/B,/A,/ B,/A,/B,/=A,/ |[I:staff -1] E4 | x4 | x4 | x4 | x4 | x4 | x4 | x4 | x4 | _ddBe- | %292
 x4 | x4 |[I:staff +1] C/E/[I:staff -1]A/G/ F/F/G/A/ | B/c/B/A/ G/A/G/F/ | =E/G/E x2 | x4 | x4 | %299
 x4 | x4 |[I:staff +1] G,/A,A,/ A,/A,/B,/A,/ | G,/B,/[I:staff -1]E/D/ C/E/F/E/ | D x x2 | x4 | x4 | %306
 x e/d/ c/B/[I:staff +1]A/G/ |[I:staff -1] z2 z/ d/e/f/ | z!f! E G2- | G!f!.E B,2 | x4 | %311
 z!f! G A2- | AF B2- | BG A2- | A=A B2- | B2 B2- | B2 c2- | c2 _d2- | d g/a/ b/!f!a/b/g/ | %319
 a/g/a/b/ x2 | x4 | x4 | x4 | x2 z .[Bg] | .[Bf].[Be].[Bd].[Bf] | [Be]2 z .[gb] | %326
 .[fa].[eg].[df].[fa] | .[eg].[df].[ce].[eg] | .[_df].[ce].[Bd].[df] | .[ce].[B_d].[Ac].[ce] | %330
 .[B_d].[Ac].[GB].[Bd] | x4 | x4 | x4 | x4 | C4 | x4 | x4 | x4 | x4 | [Bb][=A=a] [_A_a]2 | %341
 [Gg]2 [Ff]2 | [GB][FA]- [FA] x | x4 | x4 | x4 | x4 | x4 | x4 | x4 | x4 | x4 | x4 | x4 | x2 B2 | %355
 x3 d/!pp!B/ | x4 | x4 | x4 | x4 | x4 | =A7/4!pp!B/4 B x | x4 | x z z F | A2 x2 | x z z [Ge] | %366
 x2 [Bb]2 | x4 | [Aega][Aa][Gg][Gg] | [Geg]2 [Fdf] x | B/a/ z/ .g/ g/f/ z/ e/ | %371
 ed/.e/ .f/.g/.a/.b/ | =g/c'/ z/ ._b/ b/a/ z/ .g/ | gf/.=e/ .f/.^f/.g/.a/ | !>![e=a]2 b z/ b/ | %375
 !>!=b2 c' z/ [cc']/ | x2 [Bb]>[Aa] | x4 | x4 | x4 | x4 | x4 | x4 | x4 | %384
 [=A=a]/[Bb]!mp![Bb]/ [Aa]/[Bb][B_b]/ | x4 | x4 | x4 | x4 | x4 | x4 | x4 | x4 | x4 | x4 | x4 | x4 | %397
 x4 | x4 | x4 | x4 | x4 | x4 | x4 | x4 | [Ee]/[EG]/ z/ [EG]/ [EG]/[GB]/.[GB]/.[GB]/ | %406
 [GB]/[Be]/[Be]/[Be]/ [Be]/[eg]/.[eg]/.[eg]/ | x4 | x4 | x4 | A/.E/[EG-] G/.E/[EB]- | %411
 [EB]/.E/[E_d] d/.E/[EB]- | [EB]/E/[EA-] A/[Ec]/[Ac]/c/ | %413
 (3z/ [EA]/[Ac]/"_cresc." (3z/ [EA]/[Ac]/ (3z/ [EG]/[GB]/ (3z/ [E=B]/[_B_d]/ | %414
 (3z/ [EA]/[Ac]/ (3z/ [EA]/[Ac]/ (3z/ [EA]/[Ac]/ (3z/ [EA]/[Ac]/ | %415
 (3z/ [_Gc]/[ce]/ (3z/ [Gc]/[ce]/ (3z/ [Gc]/[ce]/ (3z/ [Gc]/[ce]/ | %416
 (3z/ [_Gc]/[ce]/ (3z/ [Gc]/[ce]/ (3z/ [Gc]/[ce]/ (3z/ [Gc]/[ce]/ | %417
 (3z/ [E_G]/[GB]/ (3z/ [EG]/[GB]/ (3z/ [EG]/[GB]/ (3z/ [EG]/[GB]/ | %418
 (3z/ [E_G]/[GB]/ (3z/ [EG]/[GB]/ (3z/ [EG]/[GB]/ (3z/ [EG]/[GB]/ | %419
 (3z/ [E_G]/[Ge]/ (3z/ [EG]/[Ge]/ (3z/ [EG]/[Ge]/ (3z/ [EG]/[Ge]/ | %420
 (3z/ [^F=A]/[A^f]/ (3z/ [FA]/[Af]/ (3z/ [FA]/[Af]/ (3z/ [FA]/[Af]/ | %421
 (3^f/[=a^c']/f/ (3f/[ac']/f/ (3f/[ac']/f/ (3f/[ac']/f/ |!8va(! x4 | x4 | x4 | %425
 z!8va)! [GBd]/[GBd]/ z .[DGB]/.[DGB]/ | z .[CE^F=A]/.[CEFA]/ z .[^F=Ac]/.[FAc]/ | %427
 z .[^F=Ace]/.[FAce]/ z .[CEFA]/.[CEFA]/ | z .[D=F_A=B]/.[DFAB]/ z .[Bd=f]/.[Bdf]/ | %429
 z .[=Bdf_a]/.[Bdfa]/ z .[DF_AB]/.[DFAB]/ | z .[FA=Bd]/.[FABd]/ z .[EGc]/.[EGc]/ | %431
 z .[^Fce]/.[Fce]/ z .[CEF]/.[CEF]/ | z .[_B,DG]/.[B,DG]/ z .[F_A=Bd]/.[FABd]/ | %433
 z .[Gce]/.[Gce]/ z .[=A,CE^F]/.[A,CEF]/ | z .[_B,DG]/.[B,DG]/ z .[=B,DF_A]/.[B,DFA]/ | %435
 z .[C=EG]/.[CEG]/ z .[=A,C_E^F]/.[A,CEF]/ | x4 | x4 | x4 | x4 | x4 | x4 | x4 | x4 | x4 | x4 | %446
 [ee'] x!8va(! x2!8va)! | .[FB] x!8va(! x2!8va)! | .[EB] x!8va(! x2!8va)! | %449
 .[FB] x!8va(! x2!8va)! | x4 | x4 | x4 | x4 | x4 | x4 | x4 | x4 | x4 | x4 | x4 | x4 | x4 | x4 | %464
 x4 | x4 | x4 | x4 | x4 | x4 | x4 | x2 [B,EGB] x | x [GB] x [GB] | x [EGB] x [B,EGB] | x4 | %475
 x/!8va(! x7/2 | x!8va)! x3 | x4 | x4 |] %479
V:4
 x4 | x4 | x4 | x4 | x4 | x4 | x4 | x4 | x4 | x4 | !fermata![B,,,B,,]4 | x4 | x4 | x4 | x4 | x4 | %16
 x4 | x4 | x4 | x4 | x4 | x4 | x4 | x4 | x4 | x4 | x4 | x4 | x4 | x4 | x4 | x4 | x4 | x4 | x4 | %35
 x4 | x4 | x4 | x4 | x4 | x4 | x4 | x4 | x4 |: x4 | x4 | x4 | x4 | x4 | x4 |1 x4 | z E,E,E, :|2 %52
[M:3/8] x3 |:[M:1/8] x |[M:2/4] x4 | x4 | x4 | x4 | x4 | x4 | x4 |[M:3/8] x3 ::[M:1/8] x | %63
[M:2/4][K:treble] x4 | x4 |[K:bass] x4 | x4 | x4 | x4 | x4 |[M:3/8] x3 ::[M:1/8] x |[M:2/4] x4 | %73
 x4 | x4 | x3[K:treble] x | x4 | x4 | x4 |[M:3/8] E2 z :|[M:1/8] x |[M:2/4][K:bass] E,4 | B,4 | %83
 B,,4 | E,4 | E,2 D,2 | E,2 z =E, | x4 | B,,2- B,, z | x4 | x4 | x4 | x4 | x4 | x4 | x4 | x4 | %97
 x[K:treble] x3 | .B,.B,.B, z | x4 | x4 |[K:bass] G,,4 | A,,4 | B,,2 B,,2 | x4 | x4 | x4 | x4 | %108
 x4 | x4 | x4 | x2 B,,2 | E, z z2 | G,4 | A,4 | B,4 | x4 | x4 | x4 | x4 | x4 | x4 | x4 | x4 | %124
 x[K:treble] x3 | x4 | x4 | x4 | x4 | x4 | x4 | x4 | x4 | x4 | x4 | x4 | C4 | D2- D/E/F/G/ | x4 | %139
 x4 | x4 | x4 | G,4 | C4 |[K:bass] C,4 | F,2 x2 | x4 | x4 | x4 | x4 | x4 | %151
 .[F,D].[E,C].[D,=B,].[F,-D] | F,=E,/D,/ E,/F,/G,/_A,/ | B,B,B,B, | A,C.F, z | z .G,.C,._B, | %156
 .A,.C .F, z | z .G,.C,._B, | =A,F,/=E,/ F,/G,/A,/B,/ | x4 | x4 | x4 | x[K:treble] x3 | %163
[K:bass] E,4 | A,4 | E2 E,2 | B,4 | F/C/D/=E/ F/G/F/_E/ | .[F,D].[E,C].[D,=B,].[F,D] | x4 | x4 | %171
 x4 | x4 | x4 | x4 | x4 | x4 | x4 | x4 | x4 | x4 | x4 | x4 | x4 | ^C,2 =A,,2 | D,2 z D, | %186
 ^C,=A,,D,^F, | =A,, =A,2 x |[K:treble] x4 | x4 | x4 | x4 | x4 | x4 | x4 | x4 | _B,=A, x2 | %197
 =B,=A, x2 | _B,=A, x2 | =A,G, x2 |[K:bass] G,^F, x2 | =A,G, x2 | =A, z A, z | x4 | x4 | x4 | x4 | %207
 x4 | x4 | x4 | x4 | x4 | x4 | x4 | x4 | x4 | G,,4 | D,4 | D,,4 | G,,4 | G,,2 G,,2 | D,2 D,2 | %222
 D,,2 D,,2 | x4 | !>!G,,4 | !tenuto!.G,,4 | !>!G,,4 | !>!G,,4 | G,,2 G,,2 | D,2 D,2 | D,,2 D,,2 | %231
 x4 | x4 | x4 | x4 | x4 | _A,,4 | !>!^F,,4 | D,,2 D,,2 | x4 | x4 | x4 | x4 | x4 | _A,,4 | %245
 !>!^F,,4 | D,,2 D,,2 | G,,2 _A,,2 | A,,2 A,,2 | !>!^F,,2 !>!F,,2 | D,,2 D,,2 | G,,2 G,,2 | %252
 D,,2 D,,2 | G,,2 G,,2 | D,,2 D,,2 | [G,,B,,]/ z3/2 D,2 | G,G, D,D, | G,G, D,D, | G,G, D,D, | x4 | %260
 x4 | x4 | x4 | x4 | x4 | x4 | x4 | C,2 G,,2 | =E,,2 z C, | =B,,G,,C,=E, | z G,2 z | x4 | =B,3 D | %273
 x4 | x4 | x4 | x4 | B,3 G, | F, z z!p! F, | A,3 F, | D,3 F, | D,3 _A, | G, z z2 | x4 | %284
[K:treble] x4 | x4 | x4 | x4 | x4 |[K:bass] !^!B,4 | !^!E,4 | x4 | A,3 .F, | .G,.A,.B,.G, | x4 | %295
 x4 | C z z2 | !^!E,4 | !^!B,,3 z | B,4 | E,2 z C, | x4 | x2 x A, | .F,.G,.A,.F, | G,2 x2 | %305
 x2 z/ G, x/ | x2[K:treble] x2 | x2[K:bass] x2 | x4 | x4 | x4 | x4 | x4 | x4 | x4 | x4 | x4 | x4 | %318
 x4 | E,2 A,,2- | A,,G,,/F,,/ E,,2 | E,,2 D,,2- | D,,2 A,,2- | A,,2 G,,2- | G,,2 A,,2 | G,,2 x2 | %326
 x4 | x4 | x4 | x4 | x4 | x4 | x4 | x4 | x4 | B,,/=A,,/B,,/A,,/ B,,/A,,/B,,/A,,/ | x4 | x4 | x4 | %339
 B,,B,/B,,/ =A,/B,,/_A,/B,,/ | G,/B,,/_G,/B,,/ F,/B,,/F,/B,,/ | E,/B,,/E,/B,,/ D,/B,,/_D,/B,,/ | %342
 C,/B,,/_C,/B,,/ x2 | x4 | x4 | x4 | x4 | x4 | x4 | x4 | x4 | x4 | x4 | x4 | x4 | x3 A,/G,/ | x4 | %357
 x3 _B,/A,/ | x4 | x4 | x4 | x4 | x4 | x4 | x4 | x3 E,, | x4 | x4 | x4 | x4 | x4 | x4 | x4 | %373
 x2 A,, x | G,, z G,, z | (6:4:6A,,/C,/F,/A,/F,/C,/ (6:4:6A,,/C,/F,/A,/F,/C,/ | %376
 x2 (6:4:6B,,/F,/A,/B,/A,/F,/ | x4 | x2 (6:4:6B,,/D,/F,/A,/F,/D,/ | x4 | %380
 x2 (6:4:6B,,/D,/F,/A,/F,/D,/ | (3B,,/.D,/.F,/ x x2 | x4 | x4 | x4 | x4 | x4 | x4 | x4 | x4 | %390
 [B,,E,G,B,]2 [B,,F,A,B,]2 | [B,,E,G,B,]3 [G,,G,] | x2 B,, x | x4 | x4 | x4 | x4 | x4 | x4 | x4 | %400
 x4 | x4 | x4 | x4 | x4 | x4 | x4 | x4 | x4 | .A,,z/E,,/ .A,,z/E,,/ | .B,,z/E,,/ .G,,z/E,,/ | %411
 .G,,z/E,,/ .G,,z/E,,/ | .A,,z/E,,/ z/ x3/2 | x4 | x4 | x4 | x4 | x4 | x4 | x4 | x4 | x4 | x4 | %423
 x4 | x4 | x4 | x4 | x4 | x4 | x4 | x4 | x4 | x4 | x4 | x4 | x4 | x4 | x4 | %438
 x2 [_A,,,_A,,]/[G,,,G,,]/[F,,,F,,]/[E,,,E,,]/ | %439
 [D,,,D,,]/[E,,,E,,]/[F,,,F,,]/[E,,,E,,]/ [D,,,D,,]/[B,,,,B,,,]/[C,,,C,,]/[D,,,D,,]/ | %440
 [E,,,E,,]/ z/ z z2 | x4 | x4 | x4 | x4 | x4 | x4 | x4 | x4 | x4 | x4 | x4 | x4 | x4 | x4 | x4 | %456
 x4 | x4 | x4 | x4 | x3[K:treble]!8va(! x!8va)! | %461
[K:bass] x[K:treble]!8va(! x!8va)![K:treble] x!8va(! x!8va)! | x/[K:bass] x7/2 | x4 | x4 | x4 | %466
 x4 | x4 | .[E,,E,]2 .[G,,G,]2 | .[B,,B,]2 .[G,,G,]2 | [E,,E,]2 z2 | [E,,E,]2 x2 | x4 | x4 | x4 | %475
 x4 | x4 | x4 | x4 |] %479
V:5
 x4 | x4 | x4 | x4 | x4 | x4 | x4 | x4 | x4 | x4 | x4 | x4 | x4 | x4 | x4 | x4 | x4 | x4 | x4 | %19
 x4 | x4 | x4 | x4 | x4 | x4 | x4 | x4 | x4 | x4 | x4 | x4 | x4 | x4 | x4 | x4 | x4 | x4 | x4 | %38
 x4 | x4 | x4 | x4 | x4 | x4 |: x4 | x4 | x4 | x4 | x4 | x4 |1 x4 | x4 :|2[M:3/8] x3 |:[M:1/8] x | %54
[M:2/4] x4 | x4 | x4 | x4 | x4 | x4 | x4 |[M:3/8] x3 ::[M:1/8] x |[M:2/4] x4 | x4 | x4 | x4 | x4 | %68
 x4 | x4 |[M:3/8] x3 ::[M:1/8] x |[M:2/4] x4 | x4 | x4 | x4 | x4 | x4 | x4 |[M:3/8] x3 :| %80
[M:1/8] x |[M:2/4] x4 | x4 | x4 | x4 | x4 | x4 | x4 | x4 | x4 | x4 | x4 | x4 | x4 | x4 | x4 | x4 | %97
 x4 | x4 | x4 | x4 | x4 | x4 | x4 | x4 | x4 | x4 | x4 | x4 | x4 | x4 | x4 | x4 | x4 | x4 | x4 | %116
 x4 | x4 | x4 | x4 | x4 | x4 | x4 | x4 | x4 | x4 | x4 | x4 | x4 | x4 | x4 | x4 | x4 | x4 | x4 | %135
 x4 | x4 | x4 | x4 | x4 | x4 | x4 | x4 | x4 | x4 | x4 | x4 | x4 | x4 | %149
 F[I:staff +1]_E[I:staff -1] x2 | x4 | x4 | x4 | x4 | x4 | x4 | x4 | x4 | x4 | x4 | x4 | x4 | x4 | %163
 B x x2 | x4 | x4 | f x x2 | x4 | x4 | x4 | x4 | x4 | x4 | x4 | x4 | x4 | x4 | x4 | x4 | x4 | x4 | %181
 x4 | x4 | x4 | x4 | x4 | x4 | x4 |!8va(! x4 | x4 | x4 | x4 | x4 | x4 | x4 | x3!8va)! x | x4 | x4 | %198
 x4 | x4 | x4 | x4 | x4 | x4 | x4 | x4 | x4 | x4 | x4 | x4 | x4 | x4 | x4 | x4 | x4 | x4 | x4 | %217
 x4 | x4 | x4 | x4 | x4 | x4 | x4 | x4 | x4 | x4 | x4 | x4 | x4 | x4 | x4 | x4 | x4 | x4 | x4 | %236
 x4 | x4 | x4 | x4 | x4 | x4 | x4 | x4 | x4 | x4 | x4 | x4 | x4 | x4 | x4 | x4 | x4 | x4 | x4 | %255
 x4 | x4 | x4 | x4 | x4 | x4 | x4 | x4 | x4 | x4 | x4 | x4 | x4 | x4 | x4 | x4 | x4 | x4 | x4 | %274
 x4 | x4 | _B3 G | x4 | x4 | x4 | x4 | x4 | x4 | x4 | x4 | x4 | x4 | x4 | x4 | x4 | x4 | x4 | x4 | %293
 x4 | x4 | x4 | x4 | x4 | x4 | x4 | x4 | x4 | x4 | x4 | x4 | x4 | x4 | x4 | x4 | x4 | x4 | x4 | %312
 x4 | x4 | x4 | x4 | x4 | x4 | x4 | x4 | x4 | x4 | x4 | x4 | x4 | x4 | x4 | x4 | x4 | x4 | x4 | %331
 x4 | x4 | x4 | x4 | x4 | x4 | x4 | x4 | x4 | x4 | x4 | x4 | x4 | x4 | x4 | x4 | x4 | x4 | x4 | %350
 x4 | x4 | x4 | x4 | x4 | x4 | x4 | x4 | x4 | x4 | x4 | x4 | x4 | x4 | x4 | x4 | x4 | x4 | x4 | %369
 x4 | x4 | x4 | x4 | x4 | x4 | x4 | x4 | x4 | x4 | x4 | x4 | x4 | x4 | x4 | x4 | x4 | %386
 x !>!b!>!b x | x !>!b!>!b x | x !>!b!>!b x | x !>!b !>!b/ x/ x | x4 | x4 | x4 | x4 | x4 | x4 | %396
 x4 | x4 | x4 | x4 | x4 | x4 | x4 | x4 | x4 | x4 | x4 | x4 | x4 | x4 | x4 | x4 | x4 | x4 | x4 | %415
 x4 | x4 | x4 | x4 | x4 | x4 | x4 |!8va(! x4 | x4 | x4 | x!8va)! x3 | x4 | x4 | x4 | x4 | x4 | x4 | %432
 x4 | x4 | x4 | x4 | x4 | x4 | x4 | x4 | x4 | x4 | x4 | x4 | x4 | x4 | x3/2!8va(! x7/6!8va)! x4/3 | %447
 x3/2!8va(! x7/6!8va)! x4/3 | x3/2!8va(! x7/6!8va)! x4/3 | x3/2!8va(! x7/6!8va)! x4/3 | x4 | x4 | %452
 x4 | x4 | x4 | x4 | x4 | x4 | x4 | x4 | x4 | x4 | x4 | x4 | x4 | x4 | x4 | x4 | x4 | x4 | x4 | %471
 x4 | x4 | x4 | x4 | x/!8va(! x7/2 | x!8va)! x3 | x4 | x4 |] %479

